symbolic/32x32/apps/bloomrpc.svg

<svg xmlns="http://www.w3.org/2000/svg" width="32" height="32" version="1">
 <path style="opacity:0.2" d="M 10.173828,3 C 9.2857799,4.337823 8.4969297,5.6688057 7.8066406,6.9863281 6.1613484,5.2176021 4.6969271,4.0018442 3.8105469,3.75 1.134491,19.86234 5.0207994,28.948147 16.492188,31 17.015225,30.808812 17.513934,30.60259 18.001953,30.390625 27.989446,26.186111 31.778662,19.053463 29.228516,3.6992188 28.720607,3.6084771 27.349201,4.5251107 25.695312,6.2207031 25.14534,5.1530256 24.54098,4.079783 23.824219,3 21.035976,3.7497492 18.762352,5.0090142 16.953125,6.59375 15.200518,5.0090067 12.962081,3.7497517 10.173828,3 Z"/>
 <path style="fill:#5edd86" d="M 3.8098524,2.7495945 C 7.6661115,3.8452602 22.288412,22.64696 16.492708,30 5.0213199,27.948147 1.1337965,18.861934 3.8098524,2.7495945 Z"/>
 <path style="opacity:0.2;fill:#ffffff" d="M 3.8105469 2.75 C 3.2609223 6.0592502 3.0046144 9.0550779 3.0175781 11.771484 C 3.0673633 9.3233471 3.3280679 6.6549711 3.8105469 3.75 C 6.9774329 4.6497965 17.395423 17.486149 17.8125 26.121094 C 18.226537 17.516476 7.1021742 3.6852388 3.8105469 2.75 z"/>
 <path style="fill:#077cc5" d="M 23.824274,2 C 8.7778095,6.0459436 8.6224771,24.894681 16.492708,30 29.563134,25.222316 31.679724,13.834043 23.824274,2 Z"/>
 <path style="opacity:0.1;fill:#ffffff" d="M 23.824219 2 C 14.811993 4.4233572 11.14677 12.155929 11.34375 19.066406 C 11.51316 12.426068 15.244936 5.3069403 23.824219 3 C 26.738064 7.3896361 28.274925 11.717588 28.394531 15.669922 C 28.527651 11.453286 26.985903 6.7630005 23.824219 2 z"/>
 <path style="fill:#218ef2" d="M 10.17314,2 C 25.219606,6.0459436 24.362938,24.894681 16.492708,30 8.7175306,27.157909 5.084346,21.976543 5,15.753626 4.9425565,11.515536 6.9906454,6.7943507 10.17314,2 Z"/>
 <path style="opacity:0.2;fill:#ffffff" d="M 10.173828 2 C 6.9913335 6.7943507 4.9425565 11.515816 5 15.753906 C 5.0022387 15.919077 5.0161874 16.080462 5.0234375 16.244141 C 5.1267407 12.137558 7.117179 7.6047675 10.173828 3 C 18.403211 5.2128532 21.867673 11.853389 22.037109 18.251953 C 22.217903 11.559058 18.833299 4.3285023 10.173828 2 z"/>
 <path style="fill:#0dd8c1" d="M 29.227732,2.6999996 C 27.464305,2.3849504 15.42756,13.864477 16.492708,30 27.617019,25.878496 31.903789,18.812339 29.227732,2.6999996 Z"/>
 <path style="opacity:0.2;fill:#ffffff" d="M 29.228516 2.6992188 C 27.514305 2.3929625 16.093357 13.234973 16.435547 28.662109 C 16.592435 13.769852 27.551664 3.3996369 29.228516 3.6992188 C 29.701366 6.5462144 29.945616 9.0982804 29.984375 11.414062 C 30.012809 8.8414579 29.770723 5.96381 29.228516 2.6992188 z"/>
</svg>

<svg xmlns="http://www.w3.org/2000/svg" width="32" height="32" version="1"><path style="opacity:.2" d="M10.174 3a44.885 44.885 0 0 0-2.367 3.986C6.16 5.218 4.697 4.002 3.81 3.75 1.134 19.862 5.02 28.948 16.492 31a27.296 27.296 0 0 0 1.51-.61c9.987-4.204 13.777-11.337 11.227-26.69-.508-.092-1.88.825-3.534 2.52A33.493 33.493 0 0 0 23.825 3c-2.789.75-5.063 2.009-6.872 3.594-1.752-1.585-3.99-2.844-6.78-3.594z"/><path style="fill:#5edd86" d="M3.81 2.75C7.666 3.845 22.288 22.647 16.493 30 5.02 27.948 1.133 18.862 3.81 2.75z"/><path style="opacity:.2;fill:#fff" d="M3.81 2.75c-.55 3.31-.805 6.305-.792 9.021.05-2.448.31-5.116.793-8.021 3.166.9 13.584 13.736 14.002 22.371C18.227 17.516 7.102 3.685 3.81 2.75z"/><path style="fill:#077cc5" d="M23.824 2C8.778 6.046 8.622 24.895 16.493 30c13.07-4.778 15.187-16.166 7.331-28z"/><path style="opacity:.1;fill:#fff" d="M23.824 2c-9.012 2.423-12.677 10.156-12.48 17.066.17-6.64 3.9-13.76 12.48-16.066 2.914 4.39 4.45 8.718 4.57 12.67.134-4.217-1.408-8.907-4.57-13.67z"/><path style="fill:#218ef2" d="M10.173 2c15.047 4.046 14.19 22.895 6.32 28C8.718 27.158 5.084 21.977 5 15.754 4.943 11.516 6.99 6.794 10.173 2z"/><path style="opacity:.2;fill:#fff" d="M10.174 2C6.99 6.794 4.943 11.516 5 15.754c.002.165.016.326.023.49.104-4.106 2.094-8.64 5.15-13.244 8.23 2.213 11.695 8.853 11.864 15.252.18-6.693-3.204-13.923-11.863-16.252z"/><path style="fill:#0dd8c1" d="M29.228 2.7c-1.764-.315-13.8 11.164-12.735 27.3 11.124-4.122 15.41-11.188 12.735-27.3z"/><path style="opacity:.2;fill:#fff" d="M29.229 2.7c-1.715-.307-13.136 10.535-12.793 25.962C16.592 13.77 27.552 3.4 29.229 3.7c.472 2.847.717 5.4.755 7.715.029-2.573-.213-5.45-.755-8.715z"/></svg>
